assets/assets/svg/tree_customer_name.svg

<svg fill="none" height="26" viewBox="0 0 26 26" width="26" xmlns="http://www.w3.org/2000/svg"><path clip-rule="evenodd" d="m0 10.5455c0-2.20918 1.79086-4.00004 4-4.00004h18c2.2091 0 4 1.79086 4 4.00004v11.4545c0 2.2091-1.7909 4-4 4h-18c-2.20914 0-4-1.7909-4-4zm4-2.00004c-1.10457 0-2 .89543-2 2.00004v11.4545c0 1.1046.89543 2 2 2h18c1.1046 0 2-.8954 2-2v-11.4545c0-1.10461-.8954-2.00004-2-2.00004z" fill="#fff" fill-rule="evenodd"/><path d="m13.132 1c2.5727 0 4.6583 2.0856 4.6583 4.65832v8.98298c0 2.5727-2.0856 4.6583-4.6583 4.6583s-4.65831-2.0856-4.65831-4.6583v-8.98298c0-2.57272 2.08561-4.65832 4.65831-4.65832z" fill="#304351"/><g clip-rule="evenodd" fill="#fff" fill-rule="evenodd"><path d="m13.132-.00000025c3.125.00000014 5.6583 2.53332025 5.6583 5.65832025v8.98298c0 3.125-2.5333 5.6583-5.6583 5.6583s-5.65831-2.5333-5.65831-5.6583v-8.98298c0-3.12501 2.53331-5.65832038 5.65831-5.65832025zm3.6583 5.65832025c0-2.02043-1.6379-3.65832-3.6583-3.65832s-3.65831 1.63788-3.65831 3.65832v8.98298c0 2.0204 1.63791 3.6583 3.65831 3.6583s3.6583-1.6379 3.6583-3.6583z"/><path d="m12.1153 24.1v-14.1004c0-.55228.4477-1 1-1s1 .44772 1 1v14.1004c0 .5523-.4477 1-1 1s-1-.4477-1-1z"/></g></svg>

<svg width="26" height="26" viewBox="0 0 26 26" fill="none" xmlns="http://www.w3.org/2000/svg">
<path d="M1 10.5455C1 8.8886 2.34315 7.54546 4 7.54546L22 7.54546C23.6569 7.54546 25 8.8886 25 10.5455V22C25 23.6569 23.6569 25 22 25H4C2.34315 25 1 23.6569 1 22L1 10.5455Z" fill="white"/>
<path fill-rule="evenodd" clip-rule="evenodd" d="M0 10.5455C0 8.33632 1.79086 6.54546 4 6.54546L22 6.54546C24.2091 6.54546 26 8.33632 26 10.5455V22C26 24.2091 24.2091 26 22 26H4C1.79086 26 0 24.2091 0 22L0 10.5455ZM4 8.54546C2.89543 8.54546 2 9.44089 2 10.5455L2 22C2 23.1046 2.89543 24 4 24H22C23.1046 24 24 23.1046 24 22V10.5455C24 9.44089 23.1046 8.54546 22 8.54546L4 8.54546Z" fill="#304351"/>
<path d="M13.132 1C15.7047 1 17.7903 3.0856 17.7903 5.65832L17.7903 14.6413C17.7903 17.214 15.7047 19.2996 13.132 19.2996C10.5593 19.2996 8.47369 17.214 8.47369 14.6413L8.47369 5.65832C8.47369 3.0856 10.5593 1 13.132 1Z" fill="white"/>
<path fill-rule="evenodd" clip-rule="evenodd" d="M13.132 -2.47333e-07C16.257 -1.10735e-07 18.7903 2.53332 18.7903 5.65832L18.7903 14.6413C18.7903 17.7663 16.257 20.2996 13.132 20.2996C10.007 20.2996 7.47369 17.7663 7.47369 14.6413L7.47369 5.65832C7.47369 2.53331 10.007 -3.83931e-07 13.132 -2.47333e-07ZM16.7903 5.65832C16.7903 3.63789 15.1524 2 13.132 2C11.1116 2 9.47369 3.63788 9.47369 5.65832L9.47369 14.6413C9.47369 16.6617 11.1116 18.2996 13.132 18.2996C15.1524 18.2996 16.7903 16.6617 16.7903 14.6413L16.7903 5.65832Z" fill="#304351"/>
<path fill-rule="evenodd" clip-rule="evenodd" d="M13.1153 8.9996C13.6676 8.9996 14.1153 9.44732 14.1153 9.9996L14.1153 24.1C14.1153 24.6523 13.6676 25.1 13.1153 25.1C12.563 25.1 12.1153 24.6523 12.1153 24.1L12.1153 9.9996C12.1153 9.44732 12.563 8.9996 13.1153 8.9996Z" fill="#304351"/>
</svg>
